X:1
T:O Quam Suavis
T:Andrea Saladi arr. satb BMarble
T:O Quam Suavis
T:Copyright © 2014 by CPDL.  This edition can be fully distributed, duplicated, performed, and recorded 
T:Copyright © 2014 by CPDL.  This edition can be fully distributed, duplicated, performed, and recorded 
T:Copyright © 2014 by CPDL.  This edition can be fully distributed, duplicated, performed, and recorded 
T:Copyright © 2014 by CPDL.  This edition can be fully distributed, duplicated, performed, and recorded 
T:Copyright © 2014 by CPDL.  This edition can be fully distributed, duplicated, performed, and recorded 
T:Copyright © 2014 by CPDL.  This edition can be fully distributed, duplicated, performed, and recorded 
T:Copyright © 2014 by CPDL.  This edition can be fully distributed, duplicated, performed, and recorded 
T:Copyright © 2014 by CPDL.  This edition can be fully distributed, duplicated, performed, and recorded 
T:Copyright © 2014 by CPDL.  This edition can be fully distributed, duplicated, performed, and recorded 
C:Andrea Saladi
C:arr. satb BMarble
Z:Copyright © 2014 by CPDL.  This edition can be fully distributed, duplicated, performed, and recorded
%%score [ 1 2 3 4 ]
L:1/8
Q:1/2=88
M:4/2
K:F
V:1 treble nm="Soprano" snm="S."
V:2 treble nm="Alto" snm="A."
V:3 treble-8 transpose=-12 nm="Tenor" snm="T."
V:4 bass nm="Bass" snm="B."
V:1
"^O how sweet is thy spirit, Lord, thou who, in order to demonstrate thy sweetness to thy children, send down from heaven the sweetest bread unsurpassed,filling the hungry with good things, sending away empty the disdainful rich!" z16 | %1
w: |
 z16 | z16 | z16 | z16 | z16 | c16 | A12 F4 | B8 A4 c4- | (c2 B2 A2 G2 F4) A4- | (A2 G2 F8) E4 | %11
w: |||||O|quam su-|a- vis est|_ _ _ _ _ Do-|* * * mi-|
 F8 G6 G2 | F4 A8 G4- | G2 F2 F8 E4 | F16- | F16 | z16 | c16 | A12 =B4 | (c6 _B2 A2 G2 F4-) | %20
w: ne spi- ri-|tus tu- *||us,|_||O|quam su-|a- * * * *|
 F4 B4 G4 c4- | (c2 B2 A2 G2 F4) F4 | F4 (F6 G2 A4-) | A4 A4 G4 A4 | c16 | z16 | z4 c4 c4 c4 | %27
w: * vis est Do-|* * * * * mi-|ne spi- * *|* ri- tus tu-|us,||qui ut dul-|
 (A2 B2 c2 A2 d4) d4 | (c6 B2 A4) A4 | A16 | z8 z4 c4 | c4 c4 (A2 B2 c2 A2 | d4) c4 A4 c4 | %33
w: ce- * * * * di-|nem _ _ tu-|am,|qui|ut dul- ce- * * *|* di- nem tu-|
 c4 c4 d4 B4 | B4 c6 c2 G4 | A4 A8 G4 | F4 E4 F6 F2 | G4 c8 c4 | B4 A4 G6 G2 | F8 z4 A4 | %40
w: am in fi- li-|os de- mon- stra-|res, pa- ne|su- a- vis- si-|mo, pa- ne|su- a- vis- si-|mo, de|
 B4 (d6 c2 =B2 A2 | =B4) c8 A4 | G4 F4 F4 F4 | G2 F2 F8 E4 | F16 | z8 z4 A4- | A4 F4 F4 B4- | %47
w: coe- lo _ _ _|_ prae- sti-|to, de coe- lo|prae- * * sti-|to,|e-|* su- ri- en-|
 B4 A2 G2 F2 G2 A4- | A4 G4 (A8 | G8) F4 D4- | (D2 E2 F2 G2 A8) | (A6 G2 F6 E2 | D8) z8 | %53
w: |* tes re-|* ples bo-||nis, _ _ _|_|
 z4 c4 c4 c4 | (F2 G2 A2 B2 c4) c4 | A4 A4 A8 | z4 A4 A4 A4 | (F6 G2 A4) G4 | F4 A4 B4 B4 | %59
w: fas- ti- di-|o- * * * * sos|di- vi- tes,|fas- ti- di-|o- * * sos|di- vi- tes di-|
 A8 G4 F4 | F8 E4 F4- | F4 F6 G2 A4- | A2 B2 c4 A4 B4 |"^rit." G4 (F8 E4) | F16 |] %65
w: mit- tens i-|na- nes, di-|* mit- * *|* * * * tens|i- na- *|nes.|
V:2
 z16 | z16 | z8 F8- | F8 D8- | D4 E4 (F6 E2 | D4) D4 E4 G4- | (G4 F8) E4 | F4 F6 E2 D4- | %8
w: ||O|_ quam|_ su- a- *|* vis est Do-|* * mi-|ne spi- * *|
 D2 C2 D2 E2 F4 G4 | F8 (C8 | F,8) G,8 | F,4 A,4 G,8 | C8 D8 | z8 C8- | C4 A,8 F,4 | B,4 A,4 D8 | %16
w: * * * * * ri-|tus tu-|* us,|spi- ri- tus|tu- us,|O|_ quam su-|a- vis est|
 G,2 A,2 B,2 G,2 A,4 B,4 | (G,8 A,8) | F12 G4 | G4 C4 C4 D4- | D2 E2 F8 E4 | F8 z8 | z8 z4 F4 | %23
w: Do- * * * * mi-|ne _|spi- ri-|tus tu- us, tu-||us,|qui|
 F4 F4 D2 E2 F2 C2 | G4 F6 E2 E4 | F8 F4 B4 | B4 (A2 G2) A4 G4 | F4 F6 D2 F4- | F4 E4 F8 | %29
w: ut dul- ce- * * *|* * di- nem|tu- am in|fi- li- * os de-|mon- stra- * *|* * res,|
 z4 F4 F4 F4 | (D2 E2 F2 D2 G4) F4 | E4 E4 F8- | F4 E4 F6 F2 | F12 D4 | D4 (F6 ED E4) | F4 F8 E4 | %36
w: qui ut dul-|ce- * * * * di-|nem tu- am|_ in fi- li-|os de-|mon- stra- * * *|res, pa- ne|
 D4 ^C4 D6 D2 | E4 E8 A4 | G4 F4 F4 E4 | F4 C4 D4 F4- | F4 (F8 D4-) | D4 E4 F8 | C8 C4 D4 | %43
w: su- a- vis- si-|mo, pa- ne|su- a- vis- si-|mo, de coe- lo|_ prae- *|* sti- to,|de coe- lo|
 (D8 C6) C2 | A,4 C4 C4 B,2 A,2 | B,2 C2 D2 E2 F8- | F4 D4 D6 C2 | B,6 C2 D2 E2 F4- | %48
w: prae- * sti-|to, e- su- * *||* ri- en- *||
 F2 ED E2 DE F8- | F4 E4 D4 A,4 | B,2 C2 D8 ^C4 | (D8 A,8) | z4 D4 D4 D4 | (C6 D2 E4) E4 | %54
w: |* tes re- ples|bo- * * *|nis, _|fas- ti- di-|o- * * sos|
 (D2 E2 F8) E4 | F4 C4 C4 C4 | (F,2 G,2 A,2 B,2 C8) | D8 C4 E4 | D16 | z4 C4 C4 C4 | %60
w: di- * * vi-|tes, fas- ti- di-|o- * * * *|sos di- vi-|tes|fas- ti- di-|
 (F,2 G,2 A,2 B,2) C4 A,4 | (D4 C2 B,2 A,4) D4 | D4 C8 D4 | C8 C8 | C16 |] %65
w: o- * * * sos di-|vi- * * * tes|di- mit- tens|i- na-|nes.|
V:3
 c16 | A12 F4 | B8 A4 A4 | B4 c4 F8 | G6 G2 A4 c4- | (c2 =BA B4) c4 c4- | c2 _B2 A2 GF G8 | %7
w: O|quam su-|a- vis est|Do- mi- nus|spi- ri- tus tu-|* * * * us, O|_ _ _ _ _ _|
 c4 c4 d4 A4 | B8 c8- | c8 A8- | A4 =B4 c6 _B2 | A2 G2 F6 E2 E2 DE | F12 G4 | A8 G6 G2 | A4 c8 c4 | %15
w: quam su- a- vis|est, O|_ quam|_ su- a- *||* vis|est Do- mi-|ne spi- ri-|
 (d6 cB A4) B4- | B2 A2 G6 F2 F4- | F4 E4 (F2 G2 A2 B2 | c4) d4 d4 d4 | (c2 B2 A2 G2 A8) | %20
w: tus _ _ _ tu-||* * us, _ _ _|_ O quam su-|a- * * * *|
 B4 F4 z4 c4 | c4 c4 A2 B2 c2 A2 | d4 c2 B2 A4 c4 | d4 d4 B4 c4 | c4 F4 G4 c4 | (A2 B2 c2 A2 d8-) | %26
w: vis est, qui|ut dul- ce- * * *|* * * * di-|nem tu- am, in|fi- li- os, dul-|ce- * * * *|
 d4 c4 c4 G4 | A4 A4 (B6 A2 | G4) G4 (F2 G2 A2 B2 | c4) A4 d4 d4 | B4 (A2 B2 c4) A4- | %31
w: * di- nem tu-|am, in fi- *|* li- os, _ _ _|_ dul- ce- di-|nem tu- * * am|
 A4 G4 F4 A4 | G4 c4 c4 c4 | (A2 B2 c2 A2 B4) B4- | B4 A4 G4 c4 | z4 c8 c4 | A4 A4 A6 A2 | %37
w: _ in fi- li-|os, qui ut dul-|ce- * * * * di-|* nem tu- am,|pa- ne|su- a- vis- si-|
 c4 c8 F4 | G4 A4 B4 c4 | F8 z8 | z16 | z4 G4 A4 c4- | (c2 B2 A2 G2 A8) | B4 A4 G4 c4- | %44
w: mo, pa- ne|su- a- vis- si-|mo,||de coe- lo|_ _ _ _ _|prae- sti- to e-|
 c4 A4 A4 d4- | d4 c2 B2 A2 B2 c4 | F4 A4 F4 F4 | G8 (A6 B2 | c4) c8 c4 | c4 (c2 B2 A2 G2 F4-) | %50
w: * su- ri- en-||tes, e- su- ri-|en- tes _|_ re- ples|bo- nis, _ _ _ _|
 F4 D4 E4 A4 | (A2 G2) (F2 E2) D4 D2 A2 | F4 F4 (F6 G2) | A4 A8 G4 | (F6 G2 A4) G4 | %55
w: _ bo- nis, fas-|ti- * di- * o- sos, fas-|ti- di- o- *|sos di- vi-|tes _ _ di-|
 (F6 G2 A4) (F2 G2 | A2 B2 c8) A4 | B4 F4 z4 c4 | A4 F6 F2 G4 | (F2 G2 A2 B2 c4) A4- | %60
w: mit- * * tens _|_ _ _ i-|na- nes, di-|mit- tens i- na-|nes, _ _ _ _ di-|
 A4 F4 G4 F4 | F2 E2 D2 E2 F6 G2 | A4 A4 F4 B4- | B4 A4 (G2 C2 c4) | A16 |] %65
w: * mit- tens i-|na- * * * * *|nes, di- mit- tens|_ i- na- * *|nes.|
V:4
 z8 F,8- | F,8 D,8- | D,4 E,4 (F,6 E,2 | D,4) A,,4 B,,4 B,,4- | B,,4 C,4 F,,4 F,4- | %5
w: O|_ quam|_ su- a- *|* vis est Do-|* mi- ne spi-|
 F,4 G,4 (C,6 D,2 | E,4 F,4) C,8 | F,,4 F,4 D,4 D,4 | G,8 F,4 E,4 | F,4 F,4 F,8 | D,6 D,2 C,8 | %11
w: * ri- tus _|_ _ tu-|us, O quam su-|a- vis est|Do- mi- ne|spi- ri- tus,|
 C16 | A,12 =B,4 | C4 C4 C,8 | F,16 | D,12 B,,4 | _E,8 D,4 B,,4 | C,6 C,2 F,,4 F,4- | %18
w: O|quam su-|a- vis est,|O|quam su-|a- vis est|Do- mi- ne spi-|
 (F,2 E,2 D,8) G,4 | E,4 F,6 E,2 D,2 C,2 | B,,8 C,8 | F,,16 | z4 F,4 F,4 F,4 | %23
w: * * * ri-|tus tu- * * *||us,|qui ut dul-|
 (D,2 E,2 F,2 D,2 G,4) F,4 | E,4 F,4 C,4 C,4 | D,4 A,,4 (B,,6 C,2 | D,4) F,8 E,4 | (F,8 B,,8) | %28
w: ce- * * * * di-|nem tu- am in|fi- li- os _|_ de- mon-|stra- *|
 C,8 z4 F,4 | F,4 F,4 (D,2 E,2 F,2 D,2 | G,4) F,4 E,4 F,4 | C,8 z4 F,4 | B,,4 C,4 F,8- | %33
w: res, qui|ut dul- ce- * * *|* di- nem tu-|am in|fi- li- os|
 F,8 B,,8- | B,,4 F,,4 C,8 | F,,4 F,8 C,4 | D,4 A,,4 D,6 D,2 | C,8 z8 | z8 z4 C,4 | %39
w: _ de-|* mon- stra-|res, pa- ne|su- a- vis- si-|mo,|de|
 D,4 F,6 E,2 D,2 C,2 | B,,6 C,2 D,4 G,,4- | G,,4 C,4 F,,4 F,4 | E,4 (F,6 E,2 D,4) | %43
w: coe- lo _ _ _|_ _ _ prae-|* sti- to, de|coe- lo _ _|
 (B,,8 C,6) C,2 | F,,4 F,4 F,4 D,4 | G,8 (F,6 E,2 | D,4) D,4 D,4 B,,4 | _E,8 D,6 C,B,, | %48
w: prae- * sti-|to, e- su- ri-|en- tes, _|_ e- su- ri-|en- * * *|
 A,,2 B,,2 C,4 F,,8 | C,4 C,4 (D,6 C,2 | B,,8 A,,8) | D,8 z4 D,4 | D,4 D,4 (B,,2 C,2 D,2 E,2 | %53
w: * * * tes|re- ples bo- *||nis, fas-|ti- di- o- * * *|
 F,8) C,8 | (D,6 C,B,, A,,4) C,4 | F,,8 z8 | F,8 F,4 F,4 | (B,,2 C,2 D,2 E,2 F,4) C,4 | %58
w: * sos|di- * * * vi-|tes,|fas- ti- di-|o- * * * * sos|
 D,6 C,2 B,,4 A,,2 G,,2 | D,4 F,4 E,4 F,4 | D,8 C,4 F,,4 | (B,,6 C,2 D,6 E,2 | F,8) F,4 B,,4 | %63
w: di- * * * *|* vi- tes di-|mit- tens i-|na- * * *|* nes, i-|
 C,16 | F,,16 |] %65
w: na-|nes.|

